assets/media/stacked-peaks.svg

<?xml version="1.0" encoding="utf-8"?>
<!-- Generator: Adobe Illustrator 26.0.0, SVG Export Plug-In . SVG Version: 6.00 Build 0)  -->
<svg version="1.1" id="visual" xmlns="http://www.w3.org/2000/svg" xmlns:xlink="http://www.w3.org/1999/xlink" x="0px" y="0px"
	 viewBox="0 0 960 540" style="enable-background:new 0 0 960 540;" xml:space="preserve">
<style type="text/css">
	.st0{fill:#132C6C;}
	.st1{fill:#033568;}
	.st2{fill:#004170;}
	.st3{fill:#005088;}
	.st4{fill:#00578E;}
</style>
<path class="st0" d="M0,104l87,54l88-33l87,6l87,32h87l88,5l87,6l87-38l87-32l88,21l87,22V0h-87h-88h-87h-87h-87h-88h-87h-87h-87H87
	H0V104z"/>
<path class="st1" d="M0,185l87,10l88,17l87,5l87-11l87,33l88-6l87-11l87-37l87-38l88,43h87v-45l-87-22l-88-21l-87,32l-87,38l-87-6
	l-88-5h-87l-87-32l-87-6l-88,33L0,102V185z"/>
<path class="st2" d="M0,228l87,21l88,38l87,22l87-6l87,33l88-38l87-16l87-22l87-5l88,32l87-32v-67h-87l-88-43l-87,38l-87,37l-87,11
	l-88,6l-87-33l-87,11l-87-5l-88-17L0,183V228z"/>
<path class="st3" d="M0,357l87,38l88-48l87,21l87,60l87,21l88-86l87,27l87-38l87,27l88-11l87,33V253l-87,32l-88-32l-87,5l-87,22
	l-87,16l-88,38l-87-33l-87,6l-87-22l-88-38L0,226V357z"/>
<path class="st4" d="M0,541h87h88h87h87h87h88h87h87h87h88h87V399l-87-33l-88,11l-87-27l-87,38l-87-27l-88,86l-87-21l-87-60l-87-21
	l-88,48L0,355V541z"/>
</svg>

<svg id="visual" viewBox="0 0 960 540" width="960" height="540" xmlns="http://www.w3.org/2000/svg" xmlns:xlink="http://www.w3.org/1999/xlink" version="1.1"><path d="M0 104L87 158L175 125L262 131L349 163L436 163L524 168L611 174L698 136L785 104L873 125L960 147L960 0L873 0L785 0L698 0L611 0L524 0L436 0L349 0L262 0L175 0L87 0L0 0Z" fill="#003223"></path><path d="M0 185L87 195L175 212L262 217L349 206L436 239L524 233L611 222L698 185L785 147L873 190L960 190L960 145L873 123L785 102L698 134L611 172L524 166L436 161L349 161L262 129L175 123L87 156L0 102Z" fill="#013b2d"></path><path d="M0 228L87 249L175 287L262 309L349 303L436 336L524 298L611 282L698 260L785 255L873 287L960 255L960 188L873 188L785 145L698 183L611 220L524 231L436 237L349 204L262 215L175 210L87 193L0 183Z" fill="#014537"></path><path d="M0 357L87 395L175 347L262 368L349 428L436 449L524 363L611 390L698 352L785 379L873 368L960 401L960 253L873 285L785 253L698 258L611 280L524 296L436 334L349 301L262 307L175 285L87 247L0 226Z" fill="#024f42"></path><path d="M0 541L87 541L175 541L262 541L349 541L436 541L524 541L611 541L698 541L785 541L873 541L960 541L960 399L873 366L785 377L698 350L611 388L524 361L436 447L349 426L262 366L175 345L87 393L0 355Z" fill="#02594e"></path></svg>
